X: 2193
T: HIGHLANDS OF BANFFSHIRE
R: Strathspey
B: Kerr's v.2 p.22 #193
Z: 2016 John Chambers <jc:trillian.mit.edu>
M: C
L: 1/8
K: F
f |\
c<F c>B A>Bc>f | c<F c>B A3 f |\
c<F c>B A>Bc>A | B>G _E/F/G B3 ::\
b |\
a<f c>B A<Bc>b |
a<f c>B A2 (f>g) |\
[1 a<f c>B A>Bc>A | B>G _E/F/G B3 :|\
[2 (3agf (3gfe (3fed (3cBA | B>G _E/F/G B3 |]
